X:171
M:4/4
L:1/4
K:Eb
B2 G E/G/ | F3/2 A//G// F2 | G2 E G/B/ | B3/2 A/ G2 | e2 c A/c/ | B3/2 B/ G E/G/ | B/A/ F A/G/ E | (F2 B) z | B2 G E/G/ | F3/2 A//G// F2 | G2 E G/B/ | B3/2 =B/ c2 | e2 c A/c/ | B3/2 B/ G !sintro!E/G/ | B3/4 E// G2 F | E4 !eintro!|]
